X: 2132
T: Üsküdar`a Gider İken
C: (Anonim)
O: Turkey
F: http://compmusic.upf.edu/node/140
N: nihavent--turku--nimsofyan--uskudara_gider--
N: makam= nihavent
N: form= turku
N: usul= nimsofyan = 2/4
M: 2/4
L: 1/16
K: C _B _e  
Q: 1/4=84
%%MIDI tuningsystem comma53
dedc BABc  | dedc BAG2  | dedc BABc  | 
w:  ARANAĞME  |   |   | 
d4 z4  | dedc BABc  | dedc BAG2  | AcBA AGG^F  | 
w:   |  ARANAĞME  |   |   | 
G4 z4  | G3d d2d2  | edef d2d2  | c2cc B2c2  | \
w:   |  Üs kü dar_ a   |  gi *  der_ *  i ken   |  al dı  da  bir  yağ  | 
dedc BAG2  | 
w:  mur   SAZ  | 
G3d d2d2  | edef d2d2  | c2cc B2c2  | dedc Bcd2  | 
w:  Üs kü dar_ a   |  gi *  der_ *  i ken   |  al dı  da  bir  yağ  |  mur   SAZ  | 
G3A B2c2  | dedc BAG2  | AcBA AG^FG  | A4 z4  | 
w:  Kâ ti bi min   |  set *  re si  u *  zun   |  e *  te *  ği  *  ça  |  mur    | 
G3A B2c2  | dedc BAG2  | AcBA AGG^F  | G3d ^c2d2  | 
w:  Kâ ti bi min   |  set *  re si  u *  zun   |  e *  te *  ği  *  ça  |  mur    | 
G3d d2d2  | edef d2d2  | c2c2 B2c2  | dedc BAG2  | 
w:  Kâ tib_ uy ku  |  dan  *  u *  yan mış   |  göz le ri  mah  |  mur   SAZ  | 
G3d d2d2  | edef d2d2  | c2c2 B2c2  | dedc Bcd2  | 
w:  Kâ tib_ uy ku  |  dan  *  u *  yan mış   |  göz le ri  mah  |  mur   SAZ  | 
G3A B2c2  | dedc BAG2  | AcBA AG^FG  | A4 z4  | 
w:  Kâ tip  be nim   |  ben  *  kâ *  ti *  bin   |  el  *  ne  *  ka *  rı  |  şır    | 
G3A B2c2  | dedc BAG2  | AcBA AGG^F  | G3d ^c2d2  | 
w:  Kâ ti bi me   |  ko la lı  da  göm *  lek   |  ne  gü zel  *  ya *  ra  |  şır   SAZ  | 
dedc BABc  | dedc BAG2  | dedc BABc  | 
w:  ARANAĞME  |   |   | 
d4 z4  | dedc BABc  | dedc BAG2  | AcBA AGG^F  | 
w:   |  ARANAĞME  |   |   | 
G4 z4  | G3d d2d2  | edef d2d2  | c2cc B2c2  | \
w:   |  Üs kü dar_ a   |  gi *  der_ *  i ken   |  al dı  da  bir  yağ  | 
dedc BAG2  | 
w:  mur   SAZ  | 
G3d d2d2  | edef d2d2  | c2cc B2c2  | dedc Bcd2  | 
w:  Üs kü dar_ a   |  gi *  der_ *  i ken   |  al dı  da  bir  yağ  |  mur   SAZ  | 
G3A B2c2  | dedc BAG2  | AcBA AG^FG  | A4 z4  | 
w:  Kâ ti bi min   |  set *  re si  u *  zun   |  e *  te *  ği  *  ça  |  mur    | 
G3A B2c2  | dedc BAG2  | AcBA AGG^F  | G3d ^c2d2  | 
w:  Kâ ti bi min   |  set *  re si  u *  zun   |  e *  te *  ği  *  ça  |  mur    | 
G3d d2d2  | edef d2d2  | c2c2 B2c2  | dedc BAG2  | 
w:  Kâ tib_ uy ku  |  dan  *  u *  yan mış   |  göz le ri  mah  |  mur   SAZ  | 
G3d d2d2  | edef d2d2  | c2c2 B2c2  | dedc Bcd2  | 
w:  Kâ tib_ uy ku  |  dan  *  u *  yan mış   |  göz le ri  mah  |  mur   SAZ  | 
G3A B2c2  | dedc BAG2  | AcBA AG^FG  | A4 z4  | 
w:  Kâ tip  be nim   |  ben  *  kâ *  ti *  bin   |  el  *  ne  *  ka *  rı  |  şır    | 
G3A B2c2  | dedc BAG2  | AcBA AGG^F  | G3|
w:  Kâ ti bi me   |  ko la lı  da  göm *  lek   |  ne  gü zel  *  ya *  ra  |  şır    | 


